assets/icons/messenger.svg

<svg width="24" height="24" viewBox="0 0 24 24" fill="none" xmlns="http://www.w3.org/2000/svg">
<path d="M5.81038 19.7478C5.83176 19.4539 5.70787 19.1681 5.47873 18.9827C3.2792 17.2037 1.9 14.5525 1.9 11.5868C1.9 6.27627 6.38748 1.9 12.0098 1.9C17.6196 1.9 22.1078 6.27565 22.1078 11.5868C22.1078 16.8966 17.6092 21.2735 11.998 21.2735C11.0656 21.2735 10.1798 21.1544 9.32697 20.9277C9.15685 20.8825 8.97721 20.8882 8.81028 20.944L5.64643 22.0022L5.81038 19.7478Z" stroke="black" stroke-width="1.8" stroke-linejoin="round"/>
<path d="M10.1498 8.7952C10.2222 8.80563 10.2825 8.81606 10.3548 8.82649C11.428 9.05591 12.5252 10.0362 13.3693 10.6202C13.8396 10.9539 14.2375 10.9226 14.7078 10.6097C15.7086 9.92147 16.7456 9.26448 17.7705 8.58664C18.0478 8.39893 18.3372 8.20079 18.6748 8.45107C19.0486 8.7222 18.8195 9.0142 18.6266 9.28534C17.6137 10.6827 16.6129 12.0801 15.588 13.4671C14.8886 14.4265 13.8999 14.5621 12.8388 13.8842C12.1032 13.4045 11.3436 12.9561 10.6201 12.4556C10.1378 12.1219 9.73984 12.1636 9.28163 12.4764C8.26876 13.1647 7.24382 13.8217 6.21889 14.4995C5.94156 14.6872 5.65216 14.8854 5.31454 14.6247C4.97691 14.3744 5.15778 14.0928 5.33865 13.8321C6.3877 12.393 7.42469 10.9539 8.47374 9.51476C8.82343 9.02463 9.47456 8.73263 10.1498 8.7952Z" fill="black"/>
</svg>

<svg xmlns="http://www.w3.org/2000/svg" width="24" height="24" fill="none"><path stroke="#000" stroke-linejoin="round" stroke-width="1.8" d="M5.81 19.748a.9.9 0 0 0-.331-.765c-2.2-1.78-3.579-4.43-3.579-7.396C1.9 6.277 6.387 1.9 12.01 1.9c5.61 0 10.098 4.376 10.098 9.687 0 5.31-4.499 9.686-10.11 9.686-.932 0-1.818-.119-2.671-.345a.9.9 0 0 0-.517.016l-3.164 1.058.164-2.254Z"/><path fill="#000" d="m10.15 8.795.205.031c1.073.23 2.17 1.21 3.014 1.794.47.334.869.303 1.339-.01 1-.689 2.038-1.346 3.062-2.023.278-.188.567-.386.905-.136.374.271.145.563-.048.834-1.013 1.398-2.014 2.795-3.039 4.182-.7.96-1.688 1.095-2.75.417-.735-.48-1.494-.928-2.218-1.428-.482-.334-.88-.292-1.338.02-1.013.689-2.038 1.346-3.063 2.023-.277.188-.567.386-.904.126-.338-.25-.157-.532.024-.793 1.049-1.439 2.086-2.878 3.135-4.317.35-.49 1-.782 1.676-.72Z"/></svg>
